X: 21472
T: ROCKY ROAD TO DUBLIN -- Reel
R: reel
B: K\"ohler's Violin Repository, v.2, 1885 p.147 #2
F: http://www.archive.org/details/klersviolinrepos02rugg
Z: 2012 John Chambers <jc:trillian.mit.edu>
M: C|
L: 1/8
K: Am
|: v(cB)AB (cd)e^c | d/d/d (gd) BGGB | (cB)AB (cd)eg | ^fde^c A2A2 :|
|: (cd)e^f (gf)eg | (^fe)df (ec)AB | (cd)e^f (gf)eg |1 ^fde^c A2A2 :|2 eae^c A2A2 "_D.C."|]

%%sep 2 1 500

